X:1
T:Title
%%score { ( 1 3 4 ) | ( 2 5 6 ) }
L:1/8
Q:1/4=100
M:4/4
K:Bb
V:1 treble nm="Grand Piano"
V:3 treble 
V:4 treble 
V:2 bass 
V:5 bass 
V:6 bass 
V:1
 [DF]2 [DB][Ec] [Fd]2 [Ec][DB] | [EG] [GB]3- [GB]2 [EG]2 | [DF]2 [DB][Ec] [Fd]2 [Fe][Fd] | %3
w: A.~C.~Hopkins * * * * *|||
 [Fc]6 [DF]2 | [DF]2 [DB][Ec] [Fd]2 [Ec][DB] | [EG] [GB]3- [GB]2 G2 | F2 BB B2 A>A | [DB]6 z2 | %8
w: |||||
 GG G2 GG G2 | G [GB]3- [GB]2 z2 | [DF]2 [DF][DF] [DF]<[DB] B2 | c6 z2 | d2 dc B2 cd | %13
w: |||||
 [Ge] G3- G2 G2 | %14
w: |
[M:39/32] z/4 z/4 z/4 z/4 z/4 z/4 z/4 z/4 z/4 z/4 z/4 z/4 z/4 z/4 z/4 z/4 z/ B/4-B/4-B/4-B/4-B/4-B/4-B/-<B/ z/4 z/4 z/4 z/4 z/4 z/4 z/4 z/4 z/4 z/ | %15
w: |
[M:4/4] z8 |] %16
w: |
V:2
 [B,,B,]2 [B,,B,][B,,B,] [B,,B,]2 [B,,B,][B,,B,] | [E,B,] [E,B,]3- [E,B,]2 [E,B,]2 | %2
 [B,,B,]2 [B,,B,][B,,B,] [B,,B,]2 [C,A,][D,B,] | [F,A,]6 [B,,B,]2 | %4
 [B,,B,]2 [B,,B,][B,,B,] [B,,B,]2 [B,,B,][B,,B,] | [E,B,] [E,B,]3- [E,B,]2 [E,B,E]2 | %6
 [F,B,D]2 [F,DF][F,DF] [F,CF]2 [F,CE]>[F,CE] | [B,,B,]6 z2 | %8
 [E,B,E][E,B,E] [E,B,E]2 [E,B,E][E,B,E] [E,B,E]2 | [E,B,E] [E,B,]3- [E,B,]2 z2 | %10
 [B,,B,]2 [B,,B,][B,,B,] [B,,B,]<[B,,B,] [G,B,D]2 | [F,A,F]6 z2 | %12
 [B,F]2 [B,F][B,E] [B,D]2 [B,E][B,F] | [E,B,] [E,B,E]3- [E,B,E]2 [E,B,E]2 | %14
[M:39/32] z/4 z/4 z/4 z/4 z/4 z/4 z/4 z/4[K:treble] z/4 z/4 z/4 z/4 z/4 z/4 z/4 z/4 z/ F/4-F/4-F/4-F/4-F/4-F/4-F/-<F/[K:bass] z/4 z/4 z/4 z/4 z/4 z/4 z/4 z/4 z/4 z/ | %15
[M:4/4] z8 |] %16
V:3
 x8 | x8 | x8 | x8 | x8 | x8 | x8 | x8 | x8 | x8 | x8 | x8 | x8 | x8 | %14
[M:39/32] z/4 z/4 z/4 z/4 z/4 z/4 z/4 z/4 z/4 z/4 z/4 z/4 z/4 z/4 z/4 z/4 z/4 z/4 z/4 z/4 z/4 z/4 z/4 z/4 z/ A/4-A/4-A/4-A/4-A/4-A/4-A/4-A/4-A/4-A/-<A/- | %15
[M:4/4] A3/4 z/4 z z2 z4 |] %16
V:4
 x8 | x8 | x8 | x8 | x8 | x8 | x8 | x8 | x8 | x8 | x8 | x8 | x8 | x8 | %14
[M:39/32] F/4-F/4-F/4-F/4-F/-<F/B/4-B/4-B/4-B/4-B/-<B/B/ z/4 z/4 z/4 z/4 z/4 z/4 z/4 z/4 z/4 z/4 z/4 z/4 z/4 z/4 z/4 z/4 z/4 z/4 z/4 z/ | %15
[M:4/4] [DB]6- [DB]/4 z/4 z/ z |] %16
V:5
 x8 | x8 | x8 | x8 | x8 | x8 | x8 | x8 | x8 | x8 | x8 | x8 | x8 | x8 | %14
[M:39/32] z/4 z/4 z/4 z/4 z/4 z/4 z/4 z/4[K:treble] z/4 z/4 z/4 z/4 z/4 z/4 z/4 z/4 z/4 z/4 z/4 z/4 z/4 z/4 z/4 z/4 z/[K:bass] [F,CE]/4-[F,CE]/4-[F,CE]/4-[F,CE]/4-[F,CE]/4-[F,CE]/4-[F,CE]/4-[F,CE]/4-[F,CE]/4-[F,CE]/-<[F,CE]/- | %15
[M:4/4] [F,CE]3/4 z/4 z z2 z4 |] %16
V:6
 x8 | x8 | x8 | x8 | x8 | x8 | x8 | x8 | x8 | x8 | x8 | x8 | x8 | x8 | %14
[M:39/32] [F,B,D]/4-[F,B,D]/4-[F,B,D]/4-[F,B,D]/4-[F,B,D]/-<[F,B,D]/[K:treble][F,DF]/4-[F,DF]/4-[F,DF]/4-[F,DF]/4-[F,DF]/-<[F,DF]/[F,CF]/[F,C]/4-[F,C]/4-[F,C]/4-[F,C]/4-[F,C]/-<[F,C]/[K:bass] z/4 z/4 z/4 z/4 z/4 z/4 z/4 z/4 z/4 z/4 z/4 z/ | %15
[M:4/4] [B,,B,]6- [B,,B,]/4 z/4 z/ z |] %16

